X:1
T:Alice, 87.87
T:Robert Roberts (1863-?)
T:Alice, 87.87
T:Public Domain
C:Robert Roberts (1863-?)
Z:Public Domain
%%score ( 1 2 ) ( 3 4 )
L:1/8
M:4/4
K:G
V:1 treble 
V:2 treble 
V:3 bass 
V:4 bass 
V:1
 [B,E]2 [EB]2 [^DA]2 [EG]2 | [CF]2 EF [B,E]2 [B,^D]2 | [B,A]2 [B,G]2 [Dc]2 [DB]2 | %3
 [EB]2 FE [^DB]4 | E2 [DB]2 [DA]2 GF | [Ee]2 de [Bd]2 [Ac]2 | [FB]2 [GB]2 [B,B]2 EG | %7
 [EF]2 [^DF]2 E4 |] %8
V:2
 x8 | x2 C2 x4 | x8 | x2 A2 x4 | E2 x2 G2 x2 | x2 B2 x4 | x6 E2 | x4 E4 |] %8
V:3
 [E,G,]2 G,2 [F,A,]2 [E,B,]2 | [A,,A,]2 G,A, [B,,G,]2 [B,,F,]2 | [^D,F,]2 [E,G,]2 [F,A,]2 [G,B,]2 | %3
 [C,C]2 [C,E,]2 [B,,F,]4 | [E,G,]2 G,2 [F,C]2 [G,B,]2 | [^G,B,]2 [G,B,]2 [A,E]2 [A,E]2 | %6
 [B,^D]2 G,F, [E,G,]2 [G,,B,]2 | [A,,C]2 B,A, [E,G,]4 |] %8
V:4
 x2 G,2 x4 | x2 A,,2 x4 | x8 | x8 | x2 G,2 x4 | x8 | x2 E2 x4 | x2 B,,2 x4 |] %8

